X:4635
T:Polska
C:e. Lisa Furubom
M:3/4
O:Sweden
Q:1/8=420
R:Hambo
Z:Richard Robinson 
%%TUNEURL: http://www.leeds.ac.uk/music/Info/RRTuneBk/gettune/00000bab.html
%%ID:00000bab
K:A min
A3B c>d| e2 e4| B3d c>B |B>A A>G E>G|\
A3B c>d| e2 e4| B2 B>d c>B|B>A A4:|
|:g2 g>a g>f| f<e e4| G3B d>B| c>B c>d e>f|\
g>f g>a g>f|f<e e4| G3B d>B| c2 c4 :|
